64x64/apps/cosmigo-pro-motion-icon.svg

<svg height="64" width="64" xmlns="http://www.w3.org/2000/svg"><circle cx="32" cy="33" opacity=".2" r="28"/><circle cx="32" cy="32" fill="#f4f4f7" r="28"/><path d="m32 4a28 28 0 0 0 -28 28 28 28 0 0 0 .021.586 28 28 0 0 1 27.979-27.586 28 28 0 0 1 27.979 27.414 28 28 0 0 0 .021-.414 28 28 0 0 0 -28-28z" fill="#f4f4f7" opacity=".2"/><circle cx="32" cy="33" opacity=".2" r="16"/><circle cx="32" cy="32" fill="#ff3636" r="16"/><path d="m32 16a16 16 0 0 0 -9.133 2.887l9.133 14.113 9.14-14.125a16 16 0 0 0 -9.14-2.875z" fill="#924ab4"/><path d="m32 33-8.22 12.703a16 16 0 0 0 8.22 2.297 16 16 0 0 0 8.22-2.295z" fill="#ffdb4c"/><path d="m32 33 8.22 12.705a16 16 0 0 0 7.73-12.705z" fill="#8bdb4c"/><path d="m41.14 18.875-9.14 14.125h15.95a16 16 0 0 0 .05-1 16 16 0 0 0 -6.86-13.125z" fill="#476bd7"/><path d="m16.037 33a16 16 0 0 0 7.742 12.703l8.221-12.703z" fill="#f1502f"/><circle cx="32" cy="33" opacity=".1" r="12"/><circle cx="32" cy="32" fill="#4f4f4f" r="12"/><path d="m32 16a16 16 0 0 0 -16 16 16 16 0 0 0 .021.58 16 16 0 0 1 15.979-15.58 16 16 0 0 1 15.979 15.42 16 16 0 0 0 .021-.42 16 16 0 0 0 -16-16z" fill="#f4f4f7" opacity=".2"/><circle cx="27" cy="29" opacity=".2" r="3"/><circle cx="27" cy="28" fill="#f4f4f7" r="3"/></svg>

<svg height="64" width="64" xmlns="http://www.w3.org/2000/svg">
    <circle cx="32" cy="33" opacity=".2" r="28"/>
    <circle cx="32" cy="32" fill="#f4f4f7" r="28"/>
    <path d="M32 4A28 28 0 0 0 4 32a28 28 0 0 0 .021.586A28 28 0 0 1 32 5a28 28 0 0 1 27.979 27.414A28 28 0 0 0 60 32 28 28 0 0 0 32 4z" fill="#f4f4f7" opacity=".2"/>
    <circle cx="32" cy="33" opacity=".2" r="16"/>
    <circle cx="32" cy="32" fill="#ff3636" r="16"/>
    <path d="M32 16a16 16 0 0 0-9.133 2.887L32 33l9.14-14.125A16 16 0 0 0 32 16z" fill="#924ab4"/>
    <path d="m32 33-8.22 12.703A16 16 0 0 0 32 48a16 16 0 0 0 8.22-2.295z" fill="#ffdb4c"/>
    <path d="m32 33 8.22 12.705A16 16 0 0 0 47.95 33z" fill="#8bdb4c"/>
    <path d="M41.14 18.875 32 33h15.95a16 16 0 0 0 .05-1 16 16 0 0 0-6.86-13.125z" fill="#476bd7"/>
    <path d="M16.037 33a16 16 0 0 0 7.742 12.703L32 33z" fill="#f1502f"/>
    <circle cx="32" cy="33" opacity=".1" r="12"/>
    <circle cx="32" cy="32" fill="#4f4f4f" r="12"/>
    <path d="M32 16a16 16 0 0 0-16 16 16 16 0 0 0 .021.58A16 16 0 0 1 32 17a16 16 0 0 1 15.979 15.42A16 16 0 0 0 48 32a16 16 0 0 0-16-16z" fill="#f4f4f7" opacity=".2"/>
    <circle cx="27" cy="29" opacity=".2" r="3"/>
    <circle cx="27" cy="28" fill="#f4f4f7" r="3"/>
</svg>
